src/assets/selectIconsSpells/sacro_1.svg

<svg xmlns="http://www.w3.org/2000/svg" viewBox="0 0 512 512"><path d="M0 0h512v512H0z"/><path fill="#fff" d="M18 18v15.797L179.434 215.41l9.484-16.424L28.04 18H18zm77.705 0l96.95 174.512 10.493-18.176L116.295 18h-20.59zm91.154 0c4.326 19.018 15.27 67.152 28.36 125.326.557 2.482 1.074 4.807 1.63 7.278l13.275-22.993C219.105 78.687 209.9 38.14 205.32 18h-18.46zM247 18v80.383l9-15.588 7.795 13.5L265 98.383V18h-18zm59.78 0l-24.51 110.297 13.314 23.058L325.22 18h-18.44zm88.925 0l-86.853 156.336 10.494 18.176L416.296 18h-20.59zm88.254 0L323.083 198.986l9.482 16.424L494 33.797V18h-10.04zM18 98.25v22.5l150.79 113.094 9.067-15.7L18 98.25zm476 0L334.145 218.143l9.064 15.7L494 120.75v-22.5zm-238 20.547l-74.656 129.308c20.297-9.102 46.254-14.35 74.656-14.35 28.402 0 54.36 5.248 74.656 14.35L256 118.797zm-238 70.34v19.226l136.05 51.018 9.122-15.804L18 189.136zm476 0l-145.172 54.44 9.123 15.804L494 208.364v-19.226zM18 249.18v18.14l122.615 15.326 9.77-16.92L18 249.18zm476 0l-132.383 16.547 9.768 16.92L494 267.32v-18.14zm-238 2.576c-14.737 0-26.49 11.75-26.49 26.488 0 8.536 3.948 16.065 10.13 20.895a28.09 28.09 0 0 1-1.384-8.603 28.09 28.09 0 0 1 28.09-28.09 28.09 28.09 0 0 1 13.02 3.223c-4.446-8.315-13.194-13.914-23.366-13.914zm-38.18 3.736c-12.656 2.568-23.93 6.328-33.082 10.904-17.63 8.815-26.21 19.758-26.21 29.594 0 9.837 8.58 20.777 26.21 29.592 17.63 8.815 43.077 14.643 71.262 14.643 28.185 0 53.632-5.828 71.262-14.643 17.63-8.815 26.21-19.755 26.21-29.592 0-9.836-8.58-20.78-26.21-29.594-9.153-4.576-20.426-8.336-33.082-10.904 4 6.67 6.31 14.453 6.31 22.752 0 24.465-20.025 44.49-44.49 44.49-24.465 0-44.49-20.025-44.49-44.49 0-8.3 2.31-16.083 6.31-22.752zm-83.867 38.694L18 308.68v18.14l104.666-13.082 11.287-19.552zm244.094 0l11.287 19.552L494 326.82v-18.14l-115.953-14.494zm-233.758 18.1l-57.112 98.92h337.644l-57.11-98.92c-5.763 12.078-17.677 22.035-32.4 29.398-20.907 10.452-48.695 16.54-79.312 16.54-30.617 0-58.405-6.088-79.31-16.54-14.725-7.363-26.64-17.32-32.4-29.4zm255.84 20.15l14.167 24.537L494 386.863v-19.226l-93.87-35.2zm-288.26.002L18 367.637v19.225l79.703-29.888 14.166-24.538zm-31.645 54.808L18 426.136v21.227l43.05-26.906 19.175-33.21zm351.55 0l19.174 33.21L494 447.364v-21.226l-62.225-38.89zm-350.82 41.96L18 484.29V494h16.238l74.05-64.795H80.956zm42.158 0L67.573 494h23.71l55.537-64.795h-23.707zm41.832 0L127.92 494h20.732l37.026-64.795h-20.733zm42.752 0c-8.665 28.96-15.66 51.885-19.61 64.794h18.82c4.678-15.314 11.433-37.537 19.573-64.795h-18.783zm39.303 0V494h18v-64.795h-18zm39.984 0L305.496 494h18.723l-18.515-64.795h-18.72zm39.338 0L363.348 494h20.732l-37.025-64.795h-20.733zm38.856 0L420.718 494h23.708l-55.54-64.795H365.18zm38.533 0L477.763 494H494v-9.71l-62.955-55.085H403.71z"/></svg>

<?xml version="1.0" encoding="UTF-8" standalone="no"?>
<!DOCTYPE svg PUBLIC "-//W3C//DTD SVG 1.1//EN" "http://www.w3.org/Graphics/SVG/1.1/DTD/svg11.dtd">
<svg width="100%" height="100%" viewBox="0 0 512 512" version="1.1" xmlns="http://www.w3.org/2000/svg" xmlns:xlink="http://www.w3.org/1999/xlink" xml:space="preserve" xmlns:serif="http://www.serif.com/" style="fill-rule:evenodd;clip-rule:evenodd;stroke-linejoin:round;stroke-miterlimit:2;">
    <rect x="0" y="0" width="512" height="512" style="fill-rule:nonzero;"/>
    <path d="M18,18L18,33.797L179.434,215.41L188.918,198.986L28.04,18L18,18ZM95.705,18L192.655,192.512L203.148,174.336L116.295,18L95.705,18ZM186.859,18C191.185,37.018 202.129,85.152 215.219,143.326C215.776,145.808 216.293,148.133 216.849,150.604L230.124,127.611C219.105,78.687 209.9,38.14 205.32,18L186.859,18ZM247,18L247,98.383L256,82.795L263.795,96.295L265,98.383L265,18L247,18ZM306.78,18L282.27,128.297L295.584,151.355L325.22,18L306.78,18ZM395.705,18L308.852,174.336L319.346,192.512L416.296,18L395.705,18ZM483.959,18L323.083,198.986L332.565,215.41L494,33.797L494,18L483.959,18ZM18,98.25L18,120.75L168.79,233.844L177.857,218.144L18,98.25ZM494,98.25L334.145,218.143L343.209,233.843L494,120.75L494,98.25ZM18,189.136L18,208.363L154.05,259.381L163.172,243.577L18,189.136ZM494,189.137L348.828,243.577L357.951,259.381L494,208.364L494,189.137ZM18,249.18L18,267.32L140.615,282.646L150.385,265.726L18,249.18ZM494,249.18L361.617,265.727L371.385,282.647L494,267.32L494,249.18ZM133.953,294.186L18,308.68L18,326.82L122.666,313.738L133.953,294.186ZM378.047,294.186L389.334,313.738L494,326.82L494,308.68L378.047,294.186ZM400.129,332.436L414.296,356.973L494,386.863L494,367.637L400.13,332.437L400.129,332.436ZM111.869,332.438L18,367.637L18,386.862L97.703,356.974L111.869,332.436L111.869,332.438ZM80.224,387.246L18,426.136L18,447.363L61.05,420.457L80.225,387.247L80.224,387.246ZM431.774,387.246L450.948,420.456L494,447.364L494,426.138L431.775,387.248L431.774,387.246ZM80.954,429.206L18,484.29L18,494L34.238,494L108.288,429.205L80.956,429.205L80.954,429.206ZM123.112,429.206L67.573,494L91.283,494L146.82,429.205L123.113,429.205L123.112,429.206ZM164.944,429.206L127.92,494L148.652,494L185.678,429.205L164.945,429.205L164.944,429.206ZM207.696,429.206C199.031,458.166 192.036,481.091 188.086,494L206.906,494C211.584,478.686 218.339,456.463 226.479,429.205L207.696,429.205L207.696,429.206ZM246.999,429.205L246.999,494L264.999,494L264.999,429.205L246.999,429.205ZM286.983,429.206L305.496,494L324.219,494L305.704,429.205L286.984,429.205L286.983,429.206ZM326.321,429.206L363.348,494L384.08,494L347.055,429.205L326.322,429.205L326.321,429.206ZM365.177,429.206L420.718,494L444.426,494L388.886,429.205L365.18,429.205L365.177,429.206ZM403.71,429.206L477.763,494L494,494L494,484.29L431.045,429.205L403.71,429.205L403.71,429.206Z" style="fill:rgb(255,234,0);fill-rule:nonzero;"/>
    <path d="M144.289,312.286C150.05,324.365 161.965,334.321 176.689,341.684C197.594,352.136 225.382,358.224 255.999,358.224C286.616,358.224 314.404,352.136 335.311,341.684C350.034,334.321 361.948,324.364 367.711,312.286L424.821,411.206L87.177,411.206L144.289,312.286ZM256,118.797L330.656,248.105C310.36,239.003 284.402,233.755 256,233.755C227.598,233.755 201.641,239.003 181.344,248.105L256,118.797Z" style="fill:rgb(255,0,166);"/>
    <path d="M256,251.756C266.172,251.756 274.92,257.354 279.366,265.669C275.35,263.559 270.882,262.453 266.346,262.446C250.936,262.446 238.256,275.126 238.256,290.536C238.267,293.458 238.734,296.361 239.64,299.139C233.458,294.309 229.51,286.78 229.51,278.244C229.51,263.506 241.263,251.756 256,251.756ZM217.82,255.492C213.82,262.161 211.51,269.944 211.51,278.244C211.51,302.709 231.535,322.734 256,322.734C280.465,322.734 300.49,302.709 300.49,278.244C300.49,269.945 298.18,262.162 294.18,255.492C306.836,258.06 318.109,261.82 327.262,266.396C344.892,275.21 353.472,286.154 353.472,295.99C353.472,305.827 344.892,316.767 327.262,325.582C309.632,334.397 284.185,340.225 256,340.225C227.815,340.225 202.368,334.397 184.738,325.582C167.108,316.767 158.528,305.827 158.528,295.99C158.528,286.154 167.108,275.211 184.738,266.396C193.89,261.82 205.164,258.06 217.82,255.492Z" style="fill:rgb(255,196,0);"/>
</svg>
